X:1
T:Title
%%score { ( 1 3 ) | ( 2 4 5 ) }
L:1/8
M:6/4
K:Db
V:1 treble nm="Grand Piano"
V:3 treble 
V:2 bass 
V:4 bass 
V:5 bass 
V:1
 z6 z4[Q:1/4=116] D2 | F3 F F2 C4- [A,CE]2 | [G,A,E]4 [A,D]2[K:treble] .[A,D]6 | A4 A2 A4 A2 | %4
 [GA]6 A4 G2 | F3 F F2 [=A,EF]4 E2 | z6 .D6 | d3 d [A,B,D_F]2 .[A,D=FA]6 | %8
[M:5/4][K:bass] [G,A,CE]6 D4 |[M:1/4][K:treble] d2 |[M:6/4] c3 B A2 G2 F2 E2 | z6 .A6 | %12
 E3- [E-A] [E-A]2 [E-B]2 [EB]4 | [EAc]6- [EAc]4 [GA]2 | z6 .[Fd]6[K:bass] | .D6[K:treble] z6 | %16
 [DA]3 A D2 .[DA]6 |[M:5/4][K:bass] [G,A,CE]6 [F,A,D]4 |] %18
V:2
 z6 z4 [D,F,]2 | [D,A,D]6 z2 z F G,2 | z4 F,2 F,4 D2 | D,6 [=D,_C]6 | [E,C]6 [F,D]4 [E,A,C]2 | %5
 [D,A,D]6 z2 z .F3 | B,,6 [A,,F,]6 | [G,,G,B,DG]4 =G,,2 z2 z[K:treble] A F2 | %8
[M:5/4][K:bass] A,,6 [D,F,A,]4 |[M:1/4][K:treble] [FA]2 | %10
[M:6/4] [EG]3 [DF] [CE]2 [B,D]2[K:bass] C2- [G,A,C]2 | A,6 .D6 | [C,A,]6 [B,,=G,]6 | %13
 [A,,A,]2 B,2 A,2 G,2 F,2 E,2 | .[D,D]6 z6 | .[B,,G,]3 D A,,2 [G,,G,]6 | %16
 .[A,,F,A,]6 [A,,F,A,]3[K:treble] A F2 |[M:5/4][K:bass] A,,6 D,4 |] %18
V:3
 x12 | z6 .[A,F]6 | x6[K:treble] x6 | [DF-]6 F6 | x12 | x12 | [CE]4 [B,D]2 _C4- [CD]2 | x12 | %8
[M:5/4][K:bass] x10 |[M:1/4][K:treble] x2 |[M:6/4] x12 | D3 C D2 z2 G2 [FA]2 | .A6 z6 | x12 | %14
 [Fd]3 [Ad] [Gd]2 z2[K:bass] C,2 D2 | z2 A,2 [F,_CD]2[K:treble] [=A,D=A]4 [A,DA]2 | x12 | %17
[M:5/4][K:bass] x10 |] %18
V:4
 x12 | z6 A,,6 | D,12 | x12 | x12 | z6 z4 F,2- | F,6 z6 | z6 A,,6[K:treble] |[M:5/4][K:bass] x10 | %9
[M:1/4][K:treble] x2 |[M:6/4] z6 z2[K:bass] .A,4 | F,3 .[E,G,]3 A,2- [E,A,-C]2 [D,A,D]2 | x12 | %13
 x12 | A,3- [F,A,-D] [E,A,D]2 .[D,A,]4 [C,F,A,]2 | z2 ._C,4 z6 | x9[K:treble] x3 | %17
[M:5/4][K:bass] x10 |] %18
V:5
 x12 | x12 | x12 | x12 | x12 | z6 C,6 | x12 | x9[K:treble] x3 |[M:5/4][K:bass] x10 | %9
[M:1/4][K:treble] x2 |[M:6/4] x8[K:bass] x4 | z4 F,2- F,2 z2 z2 | x12 | x12 | x12 | x12 | %16
 x9[K:treble] x3 |[M:5/4][K:bass] x10 |] %18

